X:77
T:Souters O' Selkirk, The
C:arr. Carlo Minasi
M:3/4
L:1/8
B:Chappell's One Hundred Scotch Melodies
B:Arranged for the Concertina by Carlo Minasi
Q:"Allegro  "1/4=160
Z:Peter Dunk 2012
K:D
!p!E2|([FD]>[GE]) [A2F2][B2G2]|[A2F2]F2[d2F2]|\
(BAGFED)|([FD]>[GE]) [A2F2][B2G2]|\
[A2F2]F2[d2F2]|L[c4G4E4A,4] E2|
%
([FD]>[GE]) [A2F2][B2G2]|[A2F2]F2[d2F2]|\
(BAGFED)|(G3 A B2)|A2F2d2|L[c4G4A,4]||
%
!mf!D2|d2D2 (FA)|([d3B3] [cA] [B2G2])|(BAGFED)|\
d2D2A2|(d3 c [B2G2E2])| L[c4A4E4A,4] D2|
%
d2D2 (FA)|d2 (edcB)|(BAGFED)|\
(G3 A B2)|[A2F2][F2D2][d2F2]|L[c4A4E4A,4]||

